icon_installer/data/icons/scalable/actions/show-smartphone-symbolic.svg

<?xml version="1.0" encoding="UTF-8"?>
<svg height="16px" viewBox="0 0 16 16" width="16px" xmlns="http://www.w3.org/2000/svg">
    <path d="m 4.199219 0 c -1.203125 0 -2.199219 1 -2.199219 2.199219 v 11.601562 c 0 1.199219 0.996094 2.199219 2.199219 2.199219 h 7.605469 c 1.203124 0 2.195312 -1 2.195312 -2.199219 v -11.601562 c 0 -1.199219 -0.992188 -2.199219 -2.195312 -2.199219 z m 0 2 h 7.605469 c 0.125 0 0.195312 0.070312 0.195312 0.199219 v 9.542969 c 0 0.132812 -0.070312 0.203124 -0.195312 0.203124 h -7.605469 c -0.125 0 -0.199219 -0.070312 -0.199219 -0.203124 v -9.542969 c 0 -0.128907 0.074219 -0.199219 0.199219 -0.199219 z m 3.800781 10.835938 c 0.550781 0 1 0.449218 1 1 c 0 0.550781 -0.449219 1 -1 1 s -1 -0.449219 -1 -1 c 0 -0.550782 0.449219 -1 1 -1 z m 0 0" fill="#222222"/>
</svg>

<svg xmlns="http://www.w3.org/2000/svg" width="16" height="16"><path fill="#222" d="M4.2 0C2.995 0 2 1 2 2.2v11.6C2 15 2.996 16 4.2 16h7.605C13.008 16 14 15 14 13.8V2.2C14 1 13.008 0 11.805 0zm0 2h7.605c.125 0 .195.07.195.2v9.542c0 .133-.07.203-.195.203H4.199c-.125 0-.199-.07-.199-.203V2.2c0-.13.074-.2.2-.2zM8 12.836c.55 0 1 .45 1 1s-.45 1-1 1-1-.45-1-1 .45-1 1-1zm0 0"/></svg>
